X: 32467
T: Pitt Street
R: jig
M: 6/8
K: Bminor
A|B3 BAB|def B2A|Bde fAB|def edf|
B3 BAB|def B2A|Bbf aef|dec B2A|
B3 BAB|def B2A|Bde fAB|def edf|
B3 BAB|def B2a|baf afd|e3 eBd||
e3 efa|afe d3|fab afe|fab afd|
e3 efa|afe d3|fab afd|Bde eBd|
e3 efa|afe d3|fab afe|fab afd|
e3 efa|afe d3|fab afd|Bde e2||

